svgs/light/slider.svg

<svg xmlns="http://www.w3.org/2000/svg" viewBox="0 0 512 512"><!--! Font Awesome Pro 6.6.0 by @fontawesome - https://fontawesome.com License - https://fontawesome.com/license (Commercial License) Copyright 2024 Fonticons, Inc. --><path d="M352 128c17.7 0 32 14.3 32 32l0 192c0 17.7-14.3 32-32 32l-32 0c-17.7 0-32-14.3-32-32l0-192c0-17.7 14.3-32 32-32l32 0zM320 96c-35.3 0-64 28.7-64 64l0 192c0 35.3 28.7 64 64 64l32 0c35.3 0 64-28.7 64-64l0-80 80 0c8.8 0 16-7.2 16-16s-7.2-16-16-16l-80 0 0-80c0-35.3-28.7-64-64-64l-32 0zM0 256c0 8.8 7.2 16 16 16l208 0 0-32L16 240c-8.8 0-16 7.2-16 16z"/></svg>

<svg xmlns="http://www.w3.org/2000/svg" viewBox="0 0 512 512"><!--! Font Awesome Pro 6.5.2 by @fontawesome - https://fontawesome.com License - https://fontawesome.com/license (Commercial License) Copyright 2024 Fonticons, Inc. --><path d="M352 128c17.7 0 32 14.3 32 32V352c0 17.7-14.3 32-32 32H320c-17.7 0-32-14.3-32-32V160c0-17.7 14.3-32 32-32h32zM320 96c-35.3 0-64 28.7-64 64V352c0 35.3 28.7 64 64 64h32c35.3 0 64-28.7 64-64V272h80c8.8 0 16-7.2 16-16s-7.2-16-16-16H416V160c0-35.3-28.7-64-64-64H320zM0 256c0 8.8 7.2 16 16 16H224V240H16c-8.8 0-16 7.2-16 16z"/></svg>
